X:1
T:Title
%%score { ( 1 3 ) | ( 2 4 ) }
L:1/8
M:3/4
K:Ab
V:1 treble nm="Grand Piano"
V:3 treble 
V:2 bass 
V:4 bass 
V:1
 z2 z2[Q:1/4=100] [CE]2 | [Ec]3 [DB] [CA]2 | G2 A2 B2 | [CA]4 [A,C]2 | [CE]2 z2 [CA]2 | G3 A B2 | %6
 B2 c2 [Fd]2 | [Ec]4 [=D_c]2 | [Ec]2 z2 [CE]2 | [A,C]2 [CE]2 [CA]2 | [Ec]4 [C_GB][CGA] | %11
 [DFB]2 [DF]2 [DFB]2 |[M:4/4] [DFd]6 [B,DF]2 |[M:3/4] [CE]2 [Fd]2 c2 | E4[K:treble] z2 | [CA]6- | %16
[M:2/4] [CA]4 |] %17
V:2
 z2 z2 [A,,A,]2 | [A,,A,]3 [A,,A,] [A,,A,]2 | [E,B,D]2 [E,F,D]2 [E,G,D]2 | [A,,A,]4 [A,,E,]2 | %4
 [A,,A,]2 z2 [A,,A,]2 | [E,B,]3 [E,C] [E,D]2 | [E,G,D]2 [E,G,E]2 [E,G,]2 | [A,,A,]4 [A,,A,]2 | %8
 [A,,A,]2 z2 [A,,A,]2 | [A,,E,]2 [A,,E,]2 [A,,E,]2 | [A,,A,]4 A,A, | D,2 D,2 C,2 | %12
[M:4/4] B,,6 D,2 |[M:3/4] E,2 [E,A,]2 [E,A,E]2 | [E,C]4 [E,G,D]2 | [A,,E,A,]6- | %16
[M:2/4] [A,,E,A,]4 |] %17
V:3
 x6 | x6 | x6 | x6 | x6 | x6 | x6 | x6 | x6 | x6 | x6 | x6 |[M:4/4] x8 |[M:3/4] x6 | %14
 z2 F,2[K:treble] B2 | x6 |[M:2/4] x4 |] %17
V:4
 x6 | x6 | x6 | x6 | x6 | x6 | x6 | x6 | x6 | x6 | x6 | x6 |[M:4/4] x8 |[M:3/4] x6 | A,2 z2 z2 | %15
 x6 |[M:2/4] x4 |] %17

